X: 5942
T: Camhanaich Air Machair
R: waltz
M: 3/4
K: Cmajor
|:ed dc c2|ed d2 d/c/A|ed dc c2|ed dd d/c/A||
GA Ad e2|GA Ae d/c/A|GA Ad e2|G2 Ge d/c/A:|
|:cd de {b}c'2|c'b ba a/g/e|cd de c'e|d2 ec d/c/A:|ed dc c2||

